!! 00000] TT[WS
!!!OTL: Gaizu guomindang tongshuaibu
!!!ARE: Asia, China, Shanxi Zuoquan
!! Ethnic Group: Han
!! WII, 217 (2)
!!!SCT: J0724
!!!YEM: Copyright 1995, estate of Helmut Schaffrath.
**kern
*ICvox
*Ivox
*M4/4
*k[f#]
*G:
{4b
8a
8b
4dd
8ee
8dd
=1
4b
8a
8cc
2b}
=2
{4b
8a
8b
4dd
8ee
8dd
=3
4b
8a
8cc
2b}
=4
{4b
8a
8b
4dd
8ee
8dd
=5
4b
8a
8b
8b
8g
8f#
8e}
=6
{4.dd
8ee
8b
8a
8g
8f#
=7
4e
8d
8f#
2e}
==
!!!AGN: Xiaodiao. XÅshi, Sushuo
!!!ONB: ESAC (Essen Associative Code) Database: CHINA
!!!AMT: simple quadruple
!!!AIN: vox
!!!EED: Helmut Schaffrath
!!!EEV: 1.0
*-
